public/formular-icons/greece/upper-rho.svg

<svg style="vertical-align:0" xmlns="http://www.w3.org/2000/svg" width="1.699ex" height="1.545ex" viewBox="0 -683 751 683" xmlns:xlink="http://www.w3.org/1999/xlink"><defs><path id="a" d="M287 628q0 7-57 9-24 0-31 1t-7 10q0 1 2 11 6 20 9 22t194 2q190-1 203-3 64-11 107-49t44-101q0-77-66-141-69-68-178-86-7-1-105-2h-95l-30-119Q247 66 247 59q0-4 1-5t7-4 17-2 33-2h31q6-9 6-11 0-16-7-30-5-5-16-5-3 0-37 1T182 2H87Q54 2 51 1 33 1 33 11q0 2 3 14 4 16 8 18t23 3q27 0 60 3 14 3 19 12 3 4 72 278t69 289Zm358-74q0 13-2 21t-9 22-25 22-49 16q-7 1-80 2h-35q-18 0-29-1t-12 0q-13-1-18-9-2-6-19-77t-35-138-18-68q0-2 81-2h35q112 0 160 50 27 27 41 79t14 83Z"/></defs><g stroke="currentColor" fill="currentColor" stroke-width="0"><use data-c="1D443" xlink:href="#a" transform="scale(1 -1)"/></g></svg>

<svg style="vertical-align: 0" xmlns="http://www.w3.org/2000/svg" width="1.699ex" height="1.545ex" role="img" focusable="false" viewBox="0 -683 751 683" xmlns:xlink="http://www.w3.org/1999/xlink"><defs><path id="MJX-120-TEX-I-1D443" d="M287 628Q287 635 230 637Q206 637 199 638T192 648Q192 649 194 659Q200 679 203 681T397 683Q587 682 600 680Q664 669 707 631T751 530Q751 453 685 389Q616 321 507 303Q500 302 402 301H307L277 182Q247 66 247 59Q247 55 248 54T255 50T272 48T305 46H336Q342 37 342 35Q342 19 335 5Q330 0 319 0Q316 0 282 1T182 2Q120 2 87 2T51 1Q33 1 33 11Q33 13 36 25Q40 41 44 43T67 46Q94 46 127 49Q141 52 146 61Q149 65 218 339T287 628ZM645 554Q645 567 643 575T634 597T609 619T560 635Q553 636 480 637Q463 637 445 637T416 636T404 636Q391 635 386 627Q384 621 367 550T332 412T314 344Q314 342 395 342H407H430Q542 342 590 392Q617 419 631 471T645 554Z"></path></defs><g stroke="currentColor" fill="currentColor" stroke-width="0" transform="scale(1,-1)"><g data-mml-node="math"><g data-mml-node="mi"><use data-c="1D443" xlink:href="#MJX-120-TEX-I-1D443"></use></g></g></g></svg>
